svg/justvector/photobucket.svg

<svg xmlns="http://www.w3.org/2000/svg" viewBox="0 0 100 100" enable-background="new 0 0 100 100"><path d="m90.91 21.562h-25.08c-4.689-2.584-10.08-4.062-15.827-4.062s-11.138 1.478-15.829 4.062h-8.717c0-2.234-1.841-4.062-4.091-4.062h-8.183c-2.248 0-4.09 1.827-4.09 4.062-2.248 0-4.09 1.83-4.09 4.062v48.752c0 2.232 1.842 4.063 4.091 4.063h25.08c4.691 2.582 10.09 4.061 15.829 4.061s11.138-1.479 15.827-4.062h25.08c2.249 0 4.091-1.83 4.091-4.063v-48.751c0-2.232-1.842-4.062-4.091-4.062m-81.82 52.814v-48.752h4.09 8.183 7.04c-6.808 5.955-11.131 14.656-11.131 24.376s4.322 18.421 11.13 24.376h-19.312m55.6 0c-2.109 1.257-4.395 2.254-6.808 2.943-.145.04-.287.071-.428.111-.979.266-1.984.469-3 .627-.279.047-.559.095-.844.131-1.181.15-2.384.25-3.61.25s-2.43-.1-3.612-.25c-.283-.036-.563-.084-.842-.131-1.02-.158-2.025-.361-3-.627-.141-.04-.285-.071-.428-.111-2.413-.689-4.698-1.687-6.808-2.943-8.341-4.969-13.942-14.01-13.942-24.376s5.601-19.407 13.943-24.376c2.109-1.257 4.395-2.254 6.808-2.943.143-.04.287-.072.428-.111.979-.262 1.98-.469 3-.627.283-.047.566-.095.851-.131 1.182-.15 2.384-.25 3.607-.25 1.222 0 2.426.1 3.607.25.284.036.567.084.851.131 1.02.158 2.02.365 3 .627.141.039.283.071.428.111 2.413.689 4.698 1.687 6.808 2.943 8.34 4.969 13.943 14.01 13.943 24.376s-5.603 19.407-13.944 24.376m26.22 0h-19.312c6.807-5.955 11.13-14.656 11.13-24.376s-4.322-18.421-11.13-24.376h19.313v48.752zm-18.405-24.376h-3.463c0-10.427-8.542-18.909-19.04-18.909v-3.439c12.408-.0001 22.504 10.03 22.504 22.348"/></svg>

<?xml version="1.0" encoding="iso-8859-1"?>
<!-- Generator: Adobe Illustrator 15.0.0, SVG Export Plug-In . SVG Version: 6.00 Build 0)  -->
<!DOCTYPE svg PUBLIC "-//W3C//DTD SVG 1.1//EN" "http://www.w3.org/Graphics/SVG/1.1/DTD/svg11.dtd">
<svg version="1.1" id="Icons" xmlns="http://www.w3.org/2000/svg" xmlns:xlink="http://www.w3.org/1999/xlink" x="0px" y="0px"
	 width="100px" height="100px" viewBox="0 0 100 100" style="enable-background:new 0 0 100 100;" xml:space="preserve">
<path id="Photobucket" d="M90.909,21.562H65.827C61.138,18.978,55.744,17.5,50,17.5s-11.138,1.478-15.829,4.062h-8.717
	c0-2.234-1.841-4.062-4.091-4.062h-8.183c-2.248,0-4.09,1.827-4.09,4.062l0,0C6.842,21.562,5,23.392,5,25.624v48.752
	c0,2.232,1.842,4.063,4.091,4.063h25.08C38.862,81.021,44.256,82.5,50,82.5s11.138-1.479,15.827-4.062h25.082
	c2.249,0,4.091-1.83,4.091-4.063V25.624C95,23.392,93.158,21.562,90.909,21.562z M9.091,74.376V25.624h4.09h8.183h7.04
	C21.596,31.579,17.273,40.28,17.273,50s4.322,18.421,11.13,24.376H9.091z M64.693,74.376c-2.109,1.257-4.395,2.254-6.808,2.943
	c-0.145,0.04-0.287,0.071-0.428,0.111c-0.979,0.266-1.984,0.469-3.004,0.627c-0.279,0.047-0.559,0.095-0.844,0.131
	c-1.181,0.15-2.384,0.25-3.61,0.25s-2.43-0.1-3.612-0.25c-0.283-0.036-0.563-0.084-0.842-0.131c-1.02-0.158-2.025-0.361-3.004-0.627
	c-0.141-0.04-0.285-0.071-0.428-0.111c-2.413-0.689-4.698-1.687-6.808-2.943C26.964,69.407,21.363,60.362,21.363,50
	s5.601-19.407,13.943-24.376c2.109-1.257,4.395-2.254,6.808-2.943c0.143-0.04,0.287-0.072,0.428-0.111
	c0.979-0.262,1.98-0.469,3-0.627c0.283-0.047,0.566-0.095,0.851-0.131c1.182-0.15,2.384-0.25,3.607-0.25
	c1.222,0,2.426,0.1,3.607,0.25c0.284,0.036,0.567,0.084,0.851,0.131c1.02,0.158,2.021,0.365,3,0.627
	c0.141,0.039,0.283,0.071,0.428,0.111c2.413,0.689,4.698,1.687,6.808,2.943C73.034,30.593,78.637,39.638,78.637,50
	S73.034,69.407,64.693,74.376z M90.909,74.376H71.597C78.404,68.421,82.727,59.72,82.727,50s-4.322-18.421-11.13-24.376h19.313
	V74.376z M72.504,50h-3.463c0-10.427-8.542-18.909-19.041-18.909v-3.439C62.408,27.651,72.504,37.678,72.504,50z"/>
</svg>
